svgs/sharp-light/truck-pickup.svg

<svg xmlns="http://www.w3.org/2000/svg" viewBox="0 0 640 512"><!--! Font Awesome Pro 6.6.0 by @fontawesome - https://fontawesome.com License - https://fontawesome.com/license (Commercial License) Copyright 2024 Fonticons, Inc. --><path d="M240 32l-16 0 0 16 0 144L64 192l-32 0 0 32 0 128-16 0L0 352l0 32 16 0 16 0 32 0 16 0c0 53 43 96 96 96s96-43 96-96l96 0c0 53 43 96 96 96s96-43 96-96l16 0 32 0 16 0 16 0 0-32-16 0-16 0 0-128 0-32-32 0-49.9 0-1.5-1.9-120-152L399.8 32 392 32 240 32zM576 224l0 128-21.5 0c-13.2-37.3-48.7-64-90.5-64s-77.4 26.7-90.5 64l-106.9 0c-13.2-37.3-48.7-64-90.5-64s-77.4 26.7-90.5 64L64 352l0-128 512 0zm-90.7-32L256 192l0-128 128.2 0L485.3 192zM112 384a64 64 0 1 1 128 0 64 64 0 1 1 -128 0zm352-64a64 64 0 1 1 0 128 64 64 0 1 1 0-128z"/></svg>

<svg xmlns="http://www.w3.org/2000/svg" viewBox="0 0 640 512"><!--! Font Awesome Pro 6.4.0 by @fontawesome - https://fontawesome.com License - https://fontawesome.com/license (Commercial License) Copyright 2023 Fonticons, Inc. --><path d="M240 32H224V48 192H64 32v32V352H16 0v32H16 32 64 80c0 53 43 96 96 96s96-43 96-96h96c0 53 43 96 96 96s96-43 96-96h16 32 16 16V352H624 608V224 192H576 526.1l-1.5-1.9-120-152L399.8 32H392 240zM576 224V352H554.5c-13.2-37.3-48.7-64-90.5-64s-77.4 26.7-90.5 64H266.5c-13.2-37.3-48.7-64-90.5-64s-77.4 26.7-90.5 64H64V224H576zm-90.7-32H256V64H384.2L485.3 192zM112 384a64 64 0 1 1 128 0 64 64 0 1 1 -128 0zm352-64a64 64 0 1 1 0 128 64 64 0 1 1 0-128z"/></svg>
